svgs/light/window-restore.svg

<svg xmlns="http://www.w3.org/2000/svg" viewBox="0 0 512 512"><!--! Font Awesome Pro 6.6.0 by @fontawesome - https://fontawesome.com License - https://fontawesome.com/license (Commercial License) Copyright 2024 Fonticons, Inc. --><path d="M432 32L208 32c-26.5 0-48 21.5-48 48l0 16-32 0 0-16c0-44.2 35.8-80 80-80L432 0c44.2 0 80 35.8 80 80l0 224c0 44.2-35.8 80-80 80l-16 0 0-32 16 0c26.5 0 48-21.5 48-48l0-224c0-26.5-21.5-48-48-48zM320 160L64 160c-17.7 0-32 14.3-32 32l0 64 320 0 0-64c0-17.7-14.3-32-32-32zM32 448c0 17.7 14.3 32 32 32l256 0c17.7 0 32-14.3 32-32l0-160L32 288l0 160zM64 128l256 0c35.3 0 64 28.7 64 64l0 256c0 35.3-28.7 64-64 64L64 512c-35.3 0-64-28.7-64-64L0 192c0-35.3 28.7-64 64-64z"/></svg>

<svg xmlns="http://www.w3.org/2000/svg" viewBox="0 0 512 512"><!--! Font Awesome Pro 6.5.2 by @fontawesome - https://fontawesome.com License - https://fontawesome.com/license (Commercial License) Copyright 2024 Fonticons, Inc. --><path d="M432 32H208c-26.5 0-48 21.5-48 48V96H128V80c0-44.2 35.8-80 80-80H432c44.2 0 80 35.8 80 80V304c0 44.2-35.8 80-80 80H416V352h16c26.5 0 48-21.5 48-48V80c0-26.5-21.5-48-48-48zM320 160H64c-17.7 0-32 14.3-32 32v64H352V192c0-17.7-14.3-32-32-32zM32 448c0 17.7 14.3 32 32 32H320c17.7 0 32-14.3 32-32V288H32V448zM64 128H320c35.3 0 64 28.7 64 64V448c0 35.3-28.7 64-64 64H64c-35.3 0-64-28.7-64-64V192c0-35.3 28.7-64 64-64z"/></svg>
